azure-patterns/svg-open-folder.svg

<svg xmlns="http://www.w3.org/2000/svg" viewBox="0 0 48 49">
                                
                            
  <polygon fill="#FFFFFF" points="46.6973 24.4168 39.1143 24.4168 39.1143 19.4168 15.2813 19.4168 12.5313 15.4998 1.1143 15.4998 1.1143 47.9168 39.9473 47.9168"></polygon>
  <path d="M2,16.1971 L12.063,16.1971 L14.626,19.9431 C14.813,20.2161 15.121,20.3781 15.451,20.3781 L38.489,20.3781 L38.489,23.5691 L8.512,23.5691 C8.075,23.5691 7.689,23.8521 7.558,24.2681 L2,41.8951 L2,16.1971 Z M38.97,46.7121 L38.489,46.7121 L2.579,46.7121 L9.245,25.5691 L45.636,25.5691 L38.97,46.7121 Z M47.807,23.9781 C47.618,23.7211 47.318,23.5691 47,23.5691 L40.489,23.5691 L40.489,19.3781 C40.489,18.8261 40.042,18.3781 39.489,18.3781 L15.979,18.3781 L13.415,14.6321 C13.229,14.3601 12.92,14.1971 12.59,14.1971 L1,14.1971 C0.447,14.1971 0,14.6441 0,15.1971 L0,48.0001 C0,48.5521 0.447,49.0001 1,49.0001 L39.489,49.0001 C39.888,49.0001 40.226,48.7631 40.386,48.4261 C40.505,48.3121 40.604,48.1771 40.657,48.0121 L47.954,24.8701 C48.05,24.5661 47.995,24.2351 47.807,23.9781 Z"></path>
  <path d="M41.1338,5.5359 L33.6218,0.0569 C33.4078,-0.0881 33.1218,0.0569 33.1218,0.3449 L33.5318,3.7989 C26.3978,4.5839 19.6278,7.8739 14.5828,13.0999 L18.1808,16.5729 C22.4268,12.1749 28.1228,9.4099 34.1218,8.7629 L34.5528,12.3849 C34.5528,12.6739 34.9098,12.7449 35.0538,12.5289 L41.2058,6.4729 C41.4208,6.1129 41.4208,5.7519 41.1338,5.5359"></path>
</svg>

<svg xmlns="http://www.w3.org/2000/svg" viewBox="0 0 48 49"><path fill="#FFF" d="M46.697 24.417h-7.583v-5H15.281l-2.75-3.917H1.114v32.417h38.833z"/><path d="M2 16.197h10.063l2.563 3.746a.999.999 0 0 0 .825.435h23.038v3.191H8.512a1 1 0 0 0-.954.7L2 41.894V16.197zm36.97 30.515H2.579L9.245 25.57h36.391L38.97 46.712zm8.837-22.734A1.003 1.003 0 0 0 47 23.57h-6.511v-4.19a1 1 0 0 0-1-1h-23.51l-2.564-3.747a1 1 0 0 0-.825-.435H1a1 1 0 0 0-1 1V48a1 1 0 0 0 1 1h38.489a.993.993 0 0 0 .897-.574.997.997 0 0 0 .271-.414l7.297-23.142a1 1 0 0 0-.147-.892z"/><path d="M41.134 5.536L33.622.056c-.214-.144-.5 0-.5.289l.41 3.454a31.187 31.187 0 0 0-18.95 9.3l3.599 3.474a26.149 26.149 0 0 1 15.94-7.81l.432 3.622c0 .289.357.36.5.144l6.153-6.056c.215-.36.215-.721-.072-.937"/></svg>
